lib/functional/brands/stripe-logo.svg

<svg xmlns="http://www.w3.org/2000/svg" fill="none" stroke="currentColor" aria-hidden="true" viewBox="0 0 32 32"><g id="Icon-StripeLogo"><g clip-path="url(#clip0_11_3583)"><g id="size=md (32px)"><path id="Vector" stroke-linecap="round" stroke-linejoin="round" stroke-width="2" d="M11.4873 19C11.4873 20.6625 13.5123 22 15.9998 22C18.4873 22 20.5123 20.6625 20.5123 19C20.5123 15 11.7373 16.5 11.7373 13C11.7373 11.3375 13.5123 10 15.9998 10C17.8623 10 19.3248 10.75 19.9373 11.8375"/><path id="Vector_2" stroke-linecap="round" stroke-linejoin="round" stroke-width="2" d="M26 5H6C5.44772 5 5 5.44772 5 6V26C5 26.5523 5.44772 27 6 27H26C26.5523 27 27 26.5523 27 26V6C27 5.44772 26.5523 5 26 5Z"/></g></g></g><defs><clipPath id="clip0_11_3583"><rect width="32" height="32" fill="white" rx="5"/></clipPath></defs></svg>

<svg xmlns="http://www.w3.org/2000/svg" fill="none" stroke="currentColor" aria-hidden="true" viewBox="0 0 32 32"><g stroke="#101828" stroke-linecap="round" stroke-linejoin="round" stroke-width="2" clip-path="url(#a)"><path d="M11.487 19c0 1.663 2.025 3 4.513 3 2.487 0 4.512-1.337 4.512-3 0-4-8.775-2.5-8.775-6 0-1.662 1.775-3 4.263-3 1.862 0 3.325.75 3.937 1.838"/><path d="M26 5H6a1 1 0 0 0-1 1v20a1 1 0 0 0 1 1h20a1 1 0 0 0 1-1V6a1 1 0 0 0-1-1Z"/></g><defs><clipPath id="a"><rect width="32" height="32" fill="#fff" rx="5"/></clipPath></defs></svg>
